X:275
T:Romins polska,
R:polska
S:av Karl Romin; uppt. efter klockaren Laugren i Alva.
N:En av Gotlands ståtligaste polskor.
O:Gotland, Burs
M:3/4
L:1/16
K:Bb
B,2DF B2d2 f4|edcB cBAG F3E|DBFB DBFB DBFB|EBGB EBGB EBGB|
=EcGc EcGc EcGc|FcAc FcAc FcAc|BABd f2F2 G2e2|dfAc B2d2 B,4::
F2Ac f2a2 c'4|bagf gf=ed c3B|AFGA Bcd=e f2a2|gb=eg f2a2 F4|
f2f_e d2f2 g2f2|efed c2e2 f2e2|dfga babf edcB|BABd cABG F3E|
DBFB DBFB DBFB|EBGB EBGB EBGB|=EcGc EcGc EcGc|FcAc FcAc FcAc|
BABd f2F2 G2e2|dfAc B2d2 B,4:|

